source/images/icons/pinterest.svg

<svg id="pinterest" width="22" height="22" viewBox="0 0 22 22" fill="currentColor" xmlns="http://www.w3.org/2000/svg">
<path d="M11 -1.90735e-06C4.92488 -1.90735e-06 0 4.92488 0 11C0 15.6601 2.8994 19.6439 6.99129 21.2466C6.89517 20.3763 6.80825 19.0378 7.02943 18.0877C7.22934 17.2292 8.31931 12.62 8.31931 12.62C8.31931 12.62 7.99028 11.9611 7.99028 10.9869C7.99028 9.45733 8.87682 8.31543 9.98068 8.31543C10.9192 8.31543 11.3724 9.02001 11.3724 9.8649C11.3724 10.8087 10.7716 12.2198 10.4615 13.5274C10.2023 14.6222 11.0105 15.5151 12.0904 15.5151C14.0454 15.5151 15.5483 13.4536 15.5483 10.478C15.5483 7.8442 13.6558 6.00276 10.9535 6.00276C7.82365 6.00276 5.98653 8.35032 5.98653 10.7764C5.98653 11.7219 6.35073 12.7356 6.80518 13.2867C6.89508 13.3957 6.90824 13.4911 6.88146 13.6022C6.79797 13.9497 6.6124 14.6968 6.57597 14.8497C6.528 15.0511 6.41655 15.0938 6.20808 14.9968C4.83426 14.3573 3.9753 12.3487 3.9753 10.7354C3.9753 7.26549 6.49644 4.07882 11.2434 4.07882C15.0593 4.07882 18.0247 6.79797 18.0247 10.4319C18.0247 14.2229 15.6344 17.2739 12.3167 17.2739C11.202 17.2739 10.1542 16.6948 9.79547 16.0108C9.79547 16.0108 9.2439 18.111 9.11018 18.6257C8.86186 19.5811 8.19145 20.7787 7.74303 21.5094C8.77223 21.828 9.86598 21.9999 11 21.9999C17.0751 21.9999 22 17.075 22 11C22 4.92488 17.0751 -1.90735e-06 11 -1.90735e-06Z"/>
</svg>

<svg viewBox="0 0 22 22" fill="currentColor" xmlns="http://www.w3.org/2000/svg"><path d="M11 0a11 11 0 0 0-4 21.25c-.1-.87-.2-2.21.03-3.16l1.29-5.47s-.33-.66-.33-1.63c0-1.53.89-2.67 2-2.67.93 0 1.38.7 1.38 1.54 0 .95-.6 2.36-.9 3.67-.27 1.1.54 1.99 1.62 1.99 1.96 0 3.46-2.07 3.46-5.04 0-2.64-1.9-4.48-4.6-4.48a4.76 4.76 0 0 0-4.96 4.78c0 .94.36 1.96.82 2.5.09.12.1.21.07.32l-.3 1.25c-.05.2-.16.24-.37.15-1.38-.64-2.23-2.65-2.23-4.26 0-3.47 2.52-6.66 7.26-6.66 3.82 0 6.78 2.72 6.78 6.35 0 3.8-2.39 6.84-5.7 6.84-1.12 0-2.17-.58-2.52-1.26l-.69 2.62a12.3 12.3 0 0 1-1.37 2.88 11 11 0 1 0 3.26-21.51Z"/></svg>
